X:134
T:Ornithology
C:Arr. Will Patton
N:
L:1/8
Q:1/4=176
M:4/4
K:G
z7/1D |: "G maj 7"GA Bc dB cd | BG z2 z2 zD | "Gm7"GA ^Ac de z=f | "C7"zG A^A z2 zd | 
"F maj 7"cA2=F ^A^G =AF | z4 z4 | "Fm7"^G2 =G=F EG FC | "Bb7"=F2 ^D=D4^c | "Eb maj 7"z2 c^A =Ac _BG | 
"Am7"A2 GF4D | "Gm7"AG D^A, =F2 ^D=D | zA (3FGA (3FGA (3FGA | "G maj 7"d8 | z"Am7"A (3FGA "D7"(3FGA (3FGA | 
"G maj 7"dB AG "Bb maj 7"d^A ^G=F | "A m11"EG Bd "Ab maj 7"^DG2=D :| z"D7"A (3FGA (3FGA (3FGA | 
d8 | dA "D7"(3FGA (3FGA (3FGA | d8 | 


